svgs/thin/globe-snow.svg

<svg xmlns="http://www.w3.org/2000/svg" viewBox="0 0 448 512"><!--! Font Awesome Pro 6.3.0 by @fontawesome - https://fontawesome.com License - https://fontawesome.com/license (Commercial License) Copyright 2023 Fonticons, Inc. --><path d="M376.9 404.1c-1.453-2.406-4.031-3.844-6.828-3.844H77.91c-2.797 0-5.375 1.438-6.828 3.844L27.53 475.5c-4.578 7.5-4.75 16.56-.4375 24.25C31.41 507.4 39.22 512 48.02 512h351.1c8.797 0 16.61-4.594 20.92-12.25c4.312-7.688 4.141-16.75-.4375-24.25L376.9 404.1zM406.1 491.9C406.3 493.2 404.2 496 399.1 496H48.02c-4.219 0-6.281-2.844-6.969-4.094c-.6875-1.219-2.062-4.469 .1406-8.094l41.2-67.53h283.2l41.2 67.53C409 487.4 407.6 490.7 406.1 491.9zM298.3 253.7C299.9 255.2 301.1 256 304 256s4.094-.7813 5.656-2.344c3.125-3.125 3.125-8.188 0-11.31l-80-80c-3.125-3.125-8.188-3.125-11.31 0l-80 80c-3.125 3.125-3.125 8.188 0 11.31s8.188 3.125 11.31 0l66.34-66.34v41.38L138.3 306.3c-3.125 3.125-3.125 8.188 0 11.31s8.188 3.125 11.31 0l66.34-66.34V376c0 4.406 3.578 8 8 8s8-3.594 8-8V251.3l66.34 66.34C299.9 319.2 301.1 320 304 320s4.094-.7813 5.656-2.344c3.125-3.125 3.125-8.188 0-11.31l-77.66-77.66V187.3L298.3 253.7zM256 80c0-8.836-7.162-15.1-16-15.1c-8.836 0-16 7.164-16 15.1s7.164 15.1 16 15.1C248.8 96 256 88.84 256 80zM320 176c0 8.836 7.164 15.1 16 15.1c8.838 0 16-7.164 16-15.1s-7.162-16-16-16C327.2 160 320 167.2 320 176zM64 240c0 8.836 7.164 15.1 16 15.1c8.838 0 16-7.164 16-15.1s-7.162-16-16-16C71.16 224 64 231.2 64 240zM69.38 375C72.64 372.1 72.89 367 69.92 363.7C35.16 325.4 16 275.8 16 224c0-114.7 93.31-208 208-208s207.1 93.31 207.1 208c0 51.78-19.16 101.4-53.92 139.7c-2.969 3.281-2.719 8.344 .5469 11.31c1.531 1.375 3.453 2.062 5.375 2.062c2.172 0 4.344-.875 5.922-2.625c37.45-41.28 58.08-94.72 58.08-150.5c0-123.5-100.5-223.1-224-223.1S.0001 100.5 .0001 224c0 55.75 20.63 109.2 58.08 150.5C61.08 377.8 66.11 377.1 69.38 375z"/></svg>

<svg xmlns="http://www.w3.org/2000/svg" viewBox="0 0 448 512"><!-- Font Awesome Pro 6.0.0-alpha2 by @fontawesome - https://fontawesome.com License - https://fontawesome.com/license (Commercial License) --><path d="M376.922 404.125C375.469 401.719 372.891 400.281 370.094 400.281H77.906C75.109 400.281 72.531 401.719 71.078 404.125L27.531 475.5C22.953 483 22.781 492.062 27.094 499.75C31.406 507.406 39.219 512 48.016 512H399.984C408.781 512 416.594 507.406 420.906 499.75C425.219 492.062 425.047 483 420.469 475.5L376.922 404.125ZM406.953 491.906C406.266 493.156 404.203 496 399.984 496H48.016C43.797 496 41.734 493.156 41.047 491.906C40.359 490.688 38.984 487.438 41.188 483.812L82.391 416.281H365.609L406.813 483.812C409.016 487.438 407.641 490.688 406.953 491.906ZM298.344 253.656C299.906 255.219 301.953 256 304 256S308.094 255.219 309.656 253.656C312.781 250.531 312.781 245.469 309.656 242.344L229.656 162.344C226.531 159.219 221.469 159.219 218.344 162.344L138.344 242.344C135.219 245.469 135.219 250.531 138.344 253.656S146.531 256.781 149.656 253.656L216 187.312V228.688L138.344 306.344C135.219 309.469 135.219 314.531 138.344 317.656S146.531 320.781 149.656 317.656L216 251.312V376C216 380.406 219.578 384 224 384S232 380.406 232 376V251.312L298.344 317.656C299.906 319.219 301.953 320 304 320S308.094 319.219 309.656 317.656C312.781 314.531 312.781 309.469 309.656 306.344L232 228.688V187.312L298.344 253.656ZM256 80C256 71.164 248.838 64 240 64C231.164 64 224 71.164 224 80S231.164 96 240 96C248.838 96 256 88.836 256 80ZM320 176C320 184.836 327.164 192 336 192C344.838 192 352 184.836 352 176S344.838 160 336 160C327.164 160 320 167.164 320 176ZM64 240C64 248.836 71.164 256 80 256C88.838 256 96 248.836 96 240S88.838 224 80 224C71.164 224 64 231.164 64 240ZM69.375 375.031C72.641 372.062 72.891 367 69.922 363.719C35.156 325.406 16 275.781 16 224C16 109.312 109.313 16 224 16S432 109.312 432 224C432 275.781 412.844 325.406 378.078 363.719C375.109 367 375.359 372.062 378.625 375.031C380.156 376.406 382.078 377.094 384 377.094C386.172 377.094 388.344 376.219 389.922 374.469C427.375 333.188 448 279.75 448 224C448 100.5 347.516 0 224 0S0 100.5 0 224C0 279.75 20.625 333.188 58.078 374.469C61.078 377.781 66.109 377.969 69.375 375.031Z"/></svg>
